static/safari-pinned-tab.svg

<svg width="256" height="256" fill="none" xmlns="http://www.w3.org/2000/svg"><g clip-path="url(#clip0)"><mask id="a" maskUnits="userSpaceOnUse" x="0" y="0" width="256" height="256"><path fill-rule="evenodd" clip-rule="evenodd" d="M128 256c102.4 0 128-25.6 128-128S230.4 0 128 0 0 25.6 0 128s25.6 128 128 128z" fill="#000"/></mask><g mask="url(#a)"><path fill-rule="evenodd" clip-rule="evenodd" d="M256 0H0v256h256V0zM80 52.96L115.103 47v57.923c7.631-6.877 18.162-9.934 28.999-9.934 23.046 0 31.898 15.131 31.898 38.667v74.429h-35.256v-69.386c0-10.392-1.984-17.27-8.852-17.27-7.631 0-16.789 10.698-16.789 27.968v58.688H80V52.96z" fill="#fff"/></g></g><defs><clipPath id="clip0"><path transform="rotate(90 256 0)" fill="#fff" d="M256 0h256v256H256z"/></clipPath></defs></svg>

<svg xmlns="http://www.w3.org/2000/svg" width="256" height="256" viewBox="0 0 256 256" fill="none">
<mask id="mask0" mask-type="alpha" maskUnits="userSpaceOnUse" x="0" y="0" width="256" height="256"><path fill-rule="evenodd" clip-rule="evenodd" d="M128 256C230.4 256 256 230.4 256 128C256 25.6 230.4 0 128 0C25.6 0 0 25.6 0 128C0 230.4 25.6 256 128 256Z" fill="black"/></mask>
<g mask="url(#mask0)"><path fill-rule="evenodd" clip-rule="evenodd" d="M256 0L0 0L-1.11901e-05 256L256 256V0ZM80 52.9604L115.103 47L115.103 104.923C122.734 98.0458 133.265 94.9892 144.102 94.9892C167.148 94.9892 176 110.12 176 133.656L176 208.085L140.744 208.085L140.744 138.699C140.744 128.307 138.76 121.429 131.892 121.429C124.261 121.429 115.103 132.127 115.103 149.397L115.103 208.085L80 208.085L80 52.9604Z" fill="white"/></g>
</svg>
